!!!OTL: 1832. Vor der Kirmse. / [Fuer die Kinderstube.]
!!!ODT: 1840
!!!ARE: Europa, Mitteleuropa, Deutschland, Thueringen
!!!SCT: E1832
!!!TXL: @@DE
!!!YEM: Copyright 1995, estate of Helmut Schaffrath.
**kern	**text
*ICvox	*
*M2/4	*
*k[f#]	*
*G:	*
!LO:TX:a:t=Aus Thüringen vor 1840.	!
{16gL	Wenns
16bJ	.
=1	=1
8dd	Kirm-
8dd	-ſe
8dd	wird,
16gL	wenns
16bJ	.
=2	=2
8dd	Kirm-
8dd	-ſe
8dd}	wird,
{8dd	da
=3	=3
8ee	ſchlacht't
8ee	mein
8gg	Va-
16ee	-ter
16ee	'en
=4	=4
4dd	Bock,
8r}	.
{8dd	da
=5	=5
8dd^	tanʒt
16cc	mei-
16cc	-ne
16cc	Mut-
16cc	-ter,
8cc	da
=6	=6
8cc^	tanʒt
16b	mei-
16b	-ne
16b	Mut-
16b}	-ter,
{8b	da
=7	=7
8b/	wa-
8a	-ckelt
8b/	ihr
8a	der
=8	=8
4g	Rock.
8r}	.
==	==
!!!AGN: Kinder - Lied, Tanz
!!!ONB: ESAC (Essen Associative Code) Database: ERK3
!!!AMT: simple duple
!!!AIN: vox
!!!EED: Helmut Schaffrath
!!!EEV: 1.0
!!!GTL: Einige Kinderlieder. b) Koselieder in der Kinderstube.
!!!URL-scan: https://rosdok.uni-rostock.de/mcrviewer/recordIdentifier/rosdok_ppn745177999/iview2/phys_0592.iview2?x=111.44911497100793&y=840.3500757822767&scale=0.7014306698522895&rotation=0&layout=singlePageLayout
!!!ENC: Anna Maria Matuszewska
!!!EEV: 2025/09/01
*-	*-
